packages/icons/src/components/Icon/assets/small-outline/music.svg

<svg width="16" height="16" viewBox="0 0 16 16" fill="none" xmlns="http://www.w3.org/2000/svg">
<path d="M4.84863 11.8548V11.7523L3.69922 12.0814C3.60791 12.1075 3.54492 12.1915 3.54492 12.2865C3.54516 12.4276 3.68066 12.5294 3.81641 12.4906L4.52051 12.2894C4.71431 12.234 4.84863 12.0564 4.84863 11.8548ZM10.4551 10.2533V10.1507L9.30566 10.4798C9.21458 10.506 9.15147 10.5892 9.15137 10.6839C9.15137 10.8252 9.28699 10.9278 9.42285 10.889L10.1279 10.6869C10.3215 10.6314 10.4551 10.4547 10.4551 10.2533ZM6.34863 4.91635V5.35873L10.4551 4.18588V3.74252L6.34863 4.91635ZM11.9551 10.2533C11.9551 11.1244 11.3776 11.8898 10.54 12.1292L9.83496 12.3314C8.74088 12.644 7.65137 11.8218 7.65137 10.6839C7.65147 9.91944 8.15852 9.24758 8.89355 9.03744L10.1279 8.6849C10.3216 8.62943 10.4551 8.45179 10.4551 8.25033V5.74545L6.34863 6.9183V11.8548C6.34863 12.7261 5.77037 13.4924 4.93262 13.7318L4.22852 13.933C3.13455 14.2455 2.04516 13.4241 2.04492 12.2865C2.04492 11.5218 2.55185 10.8491 3.28711 10.639L4.52051 10.2865C4.71427 10.2311 4.84857 10.0544 4.84863 9.85287V4.35092C4.84879 4.01621 5.07072 3.72218 5.39258 3.63022L10.999 2.02865C11.2252 1.96402 11.4684 2.00912 11.6562 2.15072C11.8441 2.29245 11.9551 2.51401 11.9551 2.74936V10.2533Z" fill="#727683"/>
</svg>

<svg xmlns="http://www.w3.org/2000/svg" width="16" height="16" fill="none" viewBox="0 0 16 16">
    <path fill="#727683" d="M4.849 11.855v-.103l-1.15.33a.213.213 0 0 0 .117.41l.705-.203a.45.45 0 0 0 .328-.434m5.606-1.602v-.102l-1.15.329a.213.213 0 0 0 .118.409l.705-.202a.45.45 0 0 0 .327-.434M6.35 4.916v.443l4.106-1.173v-.443zm5.606 5.337a1.95 1.95 0 0 1-1.415 1.876l-.705.202a1.713 1.713 0 0 1-.941-3.294l1.234-.352a.45.45 0 0 0 .327-.435V5.745L6.35 6.918v4.937c0 .871-.579 1.637-1.416 1.877l-.704.201a1.713 1.713 0 0 1-.942-3.294l1.234-.352a.45.45 0 0 0 .328-.434V4.35a.75.75 0 0 1 .544-.72L11 2.028a.75.75 0 0 1 .956.72z"/>
</svg>
